X:116
T:Down with the French. JGi.116
M:6/8
L:1/8
Q:3/8=120
S:Joshua Gibbons MS,1823,Tealby,Lincs.
R:jig
O:Tealby,Lincolnshire
Z:VMP/R.Greig, 2009
K:C
g2eg2e|cdce3|f2ef2e|dec BAG|g2eg2e|cdce3|dfe dcB|c3c2:|
|:d2d edc|BcAG3|cGc ece|gfed3|d2d edc|BcAG3|ABc dfd|c3c3:|

